X:156
M:4/4
L:1/8
K:G
| DGBG dGBG | efge dBAB | GFGA B/c/d BG | A/B/c AF GFEF | 
|: d/e/f | gBeg edBA | GBdg edBd | efge dBAB | c/B/A BG A4 | 

